X:1
T:Let It Be a Dance
M:2/2
L:1/8
K:G
 G,A, B, G,| A,3 B, A,4| z4 A,B, CA,| B,3 C B,4| z2 GG GG GG| A G2 E- E2 z2|\
 z4 FF FF| G6 z2| z4 G,A, B, G,| A,3 B, A,4| z2 z A,A, B,C A,| B,3 C B,4|\
 z2 z GG GG G| A G2 E- E2 z2| z4 FF FF| G2 z2 AA GF| G6 z2| z2 z G, G,A, B, G,|\
 A,3 B, A,4| z2 z A,A, B,C A,| B,3 C B,4| B,2 B,G GG GG| A G2 E- E2 z2|\
 z4 FF FF| G8-| G2 z2||
